X: 34
L:1/8
M:2/4
K:F
(3C/D/E/|F/E/F/G/ A/B/c/A/|B/A/B/c/ d/e/f/d/|c/=B/c/d/ c/A/F/G/|A/G/F/A/ G/E/D/(3C/D/E/|
e/^d/e/f/ g/^f/g/e/|=f/e/f/d/ c>c|e/d/e/f/ g/^f/g/e/|=f/e/f/d/ c>A|B/A/B/c/ d/e/f/d/|c/A/F/A/ c>f|
e/d/c/B/ A/G/F/E/|FA F2||C/Ff/ c/d/c/A/|B/A/B/c/ d/e/f|C/Ff/ c/d/c/B/|



